X: 1
T: Scotland the Brave
Z: John Chambers <jc@trillian.mit.edu>
%P: A1A2.BA2.BA2
M: 2/4
L: 1/8
K: G
|: "G"G2 G>A | BG Bd | g2 g>f gd BG | "C"c2 ec | "G"B<d BG |1 "A7"A2 d>e | d4 :|2 "D7"A2 G>A | "G"G4 ||
| {defg}"D7"a2 a>b | af d2 | "G"g2 b>a | "C"ge "G"d2 | "G"g2 ag | "D"f2 gf | "A7"eg fe | "D7"dc "d.C."BA |]
